symbols/web/import_contacts/materialsymbolssharp/import_contacts_wght300gradN25_24px.svg

<svg xmlns="http://www.w3.org/2000/svg" height="24" width="24"><path d="M6.575 15.975q1.225 0 2.4.287 1.175.288 2.325.888V7.425Q10.275 6.75 9.038 6.4 7.8 6.05 6.55 6.05q-.925 0-1.813.163-.887.162-1.637.537v9.825q.75-.3 1.663-.45.912-.15 1.812-.15ZM12.7 17.15q1.175-.6 2.337-.888 1.163-.287 2.388-.287.9 0 1.813.15.912.15 1.662.45V6.75q-.75-.35-1.637-.525-.888-.175-1.813-.175-1.25 0-2.475.35T12.7 7.425ZM12 19.2q-1.2-.85-2.575-1.337-1.375-.488-2.875-.488-1.275 0-2.6.437-1.325.438-2.25 1.063V5.925q.975-.625 2.288-.95Q5.3 4.65 6.55 4.65q1.45 0 2.837.4 1.388.4 2.613 1.175 1.225-.775 2.613-1.175 1.387-.4 2.837-.4 1.25 0 2.563.325 1.312.325 2.287.95v12.95q-.925-.625-2.25-1.063-1.325-.437-2.6-.437-1.5 0-2.875.488Q13.2 18.35 12 19.2Zm-4.8-7.6Z"/></svg>

<svg xmlns="http://www.w3.org/2000/svg" height="24" width="24"><path d="M6.575 15.975Q7.8 15.975 8.975 16.262Q10.15 16.55 11.3 17.15V7.425Q10.275 6.75 9.038 6.4Q7.8 6.05 6.55 6.05Q5.625 6.05 4.737 6.213Q3.85 6.375 3.1 6.75V16.575Q3.85 16.275 4.763 16.125Q5.675 15.975 6.575 15.975ZM12.7 17.15Q13.875 16.55 15.037 16.262Q16.2 15.975 17.425 15.975Q18.325 15.975 19.238 16.125Q20.15 16.275 20.9 16.575V6.75Q20.15 6.4 19.263 6.225Q18.375 6.05 17.45 6.05Q16.2 6.05 14.975 6.4Q13.75 6.75 12.7 7.425ZM12 19.2Q10.8 18.35 9.425 17.863Q8.05 17.375 6.55 17.375Q5.275 17.375 3.95 17.812Q2.625 18.25 1.7 18.875V5.925Q2.675 5.3 3.988 4.975Q5.3 4.65 6.55 4.65Q8 4.65 9.387 5.05Q10.775 5.45 12 6.225Q13.225 5.45 14.613 5.05Q16 4.65 17.45 4.65Q18.7 4.65 20.013 4.975Q21.325 5.3 22.3 5.925V18.875Q21.375 18.25 20.05 17.812Q18.725 17.375 17.45 17.375Q15.95 17.375 14.575 17.863Q13.2 18.35 12 19.2ZM7.2 11.6Q7.2 11.6 7.2 11.6Q7.2 11.6 7.2 11.6Q7.2 11.6 7.2 11.6Q7.2 11.6 7.2 11.6Q7.2 11.6 7.2 11.6Q7.2 11.6 7.2 11.6Q7.2 11.6 7.2 11.6Q7.2 11.6 7.2 11.6Z"/></svg>
